X:1
T:Dick's Maggot
C:Traditional
M:3/2
L:1/8
Q:1/4=72
K:F
f2c4A2-A2G2 | A B c2 G A B2 A4 | f2c4A2-A2G2 | A B c2 F2 E2 F4 |
f2c4A2-A2G2 | A B c2 G A B2 A2 G2 | f2c4A2-A2G2 | A B c2 F2 E2 F4 |]
